src/icons/svg/ticket-apply.svg

<svg width="22px" height="23.5986516px" viewBox="0 0 22 23.5986516" version="1.1" xmlns="http://www.w3.org/2000/svg">
    <path d="M9.33329308,23.3295968 C9.51023903,23.149015 9.59871201,22.9320744 9.59871201,22.678775 C9.59871201,22.4242637 9.51023903,22.2073231 9.33329308,22.0279533 C9.15634713,21.8461595 8.94183045,21.7552626 8.68974307,21.7552626 L2.85961628,21.7552626 C2.57359404,21.7552626 2.32877841,21.6522461 2.12516938,21.4462132 C1.92156034,21.2389682 1.81975582,20.9886988 1.81975582,20.6954048 L1.81975582,2.90506472 C1.81975582,2.61177074 1.92156034,2.36150129 2.12516938,2.15425638 C2.32877841,1.94822342 2.57359404,1.84520694 2.85961628,1.84520694 L17.4667471,1.84520694 C17.7527694,1.84520694 17.997585,1.94822342 18.201194,2.15425638 C18.406015,2.36150129 18.5084255,2.61177074 18.5084256,2.90506472 L18.5084256,9.94412021 C18.5084256,10.1986315 18.5968985,10.4155721 18.7738445,10.594942 C18.9507904,10.7767358 19.1653071,10.8676326 19.4173945,10.8676326 C19.6694819,10.8676326 19.8839986,10.7767358 20.0609445,10.594942 C20.2378904,10.4155721 20.3263634,10.1986315 20.3263634,9.94412021 L20.3263634,2.90506472 C20.3263634,2.10517206 20.0476129,1.42102144 19.490112,0.852612876 C18.9301871,0.284204292 18.2557322,0 17.4667471,0 L2.85961628,0 C2.07063124,0 1.3961763,0.284810265 0.836251434,0.854430794 C0.278750478,1.4192035 0,2.10214217 0,2.9032468 L0,20.6935869 C0,21.4934795 0.278750478,22.1776302 0.836251434,22.7460387 C1.3961763,23.3144473 2.07063124,23.5986516 2.85961628,23.5986516 L8.68974307,23.5986516 C8.94183045,23.5986516 9.15634713,23.5077547 9.33329308,23.3259609 L9.33329308,23.3295968 Z"
          id="路径"></path>
    <path d="M21.1717045,13.7072516 L21.1062588,13.6418058 C20.523946,13.0561668 19.7324234,12.7264747 18.9065539,12.7255652 C18.1321124,12.7255652 17.4921983,13.1473267 16.9068223,13.7345207 L11.2893942,19.3519487 L11.7493325,23.0696317 L15.0179848,23.4132219 C15.2625034,23.4478394 15.5091856,23.3665083 15.685168,23.1932515 L21.0753538,17.8030657 C22.2315623,16.6450392 22.3479104,14.8852754 21.1717045,13.7072516 L21.1717045,13.7072516 Z M14.9289059,22.0206815 L12.9546253,21.8461595 L12.7491984,19.8191588 L16.4377943,16.1341987 L18.6247736,18.321178 L14.9289059,22.0206815 L14.9289059,22.0206815 Z M20.1136647,16.8377406 L19.6010062,17.3485812 L17.4158449,15.1616019 L17.8739652,14.6998457 C18.1811967,14.3926142 18.4738847,14.0999262 18.9065539,14.0999262 C19.3664922,14.0999262 19.8027973,14.28172 20.133662,14.6125847 L20.1991078,14.6798484 C20.837204,15.3179446 20.7335815,16.2196418 20.1154826,16.8377406 L20.1136647,16.8377406 Z"
          id="形状"></path>
    <path d="M4.61756221,5.27201985 L4.61756221,7.08995773 L16.183283,7.08995773 L16.183283,5.27201985 L4.61756221,5.27201985 L4.61756221,5.27201985 Z M4.61756221,10.8803582 L4.61756221,12.7237472 L12.4765077,12.7237472 L12.4765077,10.8803582 L4.61574427,10.8803582 L4.61756221,10.8803582 Z"
          id="形状"></path>
</svg>

<svg width="22" height="23.599" xmlns="http://www.w3.org/2000/svg"><path d="M9.333 23.33a.897.897 0 0 0 .266-.651.893.893 0 0 0-.266-.651.865.865 0 0 0-.643-.273H2.86a.995.995 0 0 1-.735-.309 1.032 1.032 0 0 1-.305-.75V2.905c0-.294.102-.544.305-.752a.995.995 0 0 1 .735-.309h14.607c.286 0 .53.103.734.31.205.207.307.457.307.75v7.04c0 .254.089.47.266.65a.865.865 0 0 0 .643.273c.252 0 .467-.091.644-.273a.893.893 0 0 0 .265-.65v-7.04c0-.8-.278-1.484-.836-2.052A2.737 2.737 0 0 0 17.467 0H2.86C2.07 0 1.396.285.836.854A2.81 2.81 0 0 0 0 2.904v17.79c0 .8.279 1.484.836 2.052.56.568 1.235.853 2.024.853h5.83c.252 0 .466-.091.643-.273v.004z"/><path d="M21.172 13.707l-.066-.065a3.107 3.107 0 0 0-2.2-.916c-.774 0-1.414.421-2 1.009l-5.617 5.617.46 3.718 3.269.343a.793.793 0 0 0 .667-.22l5.39-5.39c1.157-1.158 1.273-2.918.097-4.096zm-6.243 8.314l-1.974-.175-.206-2.027 3.689-3.685 2.187 2.187-3.696 3.7zm5.185-5.183l-.513.51-2.185-2.186.458-.462c.307-.307.6-.6 1.033-.6.46 0 .896.182 1.227.513l.065.067c.638.638.535 1.54-.084 2.158h-.001zM4.618 5.272V7.09h11.565V5.272H4.618zm0 5.608v1.844h7.859V10.88H4.616h.002z"/></svg>
